X:1
T:Nun komm, der Heiden Heiland.
T:Nun komm, der Heiden Heiland.
T:Copyright © 2011 by the Choral Public Domain Library (http://www.cpdl.org) Edition may be freely distributed, duplicated, performed, or recorded
T:Copyright © 2011 by the Choral Public Domain Library (http://www.cpdl.org) Edition may be freely distributed, duplicated, performed, or recorded
Z:Copyright © 2011 by the Choral Public Domain Library (http://www.cpdl.org)
Z:Edition may be freely distributed, duplicated, performed, or recorded
%%score [ ( 1 2 ) ( 3 4 ) ]
L:1/8
M:4/4
K:D
V:1 treble nm="P1"
V:2 treble 
V:3 bass nm="P2"
V:4 bass 
V:1
 B2 B2 A2 d2 | cB c2 !fermata!B4 | Bc d2 e2 d2 | e2 f2 !fermata!d4 | d2 e2 fe d2 | %5
 ed c2 !fermata!B4 | B2 B2 A2 d2 | cB c2 !fermata!B4 |][K:C] A2 A2 G2 c2 | BA B2 !fermata!A4 | %10
 AB c2 d2 c2 | d2 e2 !fermata!c4 | c2 d2 ed c2 | dc B2 !fermata!A4 | A2 A2 G2 c2 | %15
 BA B2 !fermata!A4 |] %16
V:2
 F2 E2 F2 FG/A/ | GF E2 D4 | F3 ^G A3 B | c2 dF G4 | A2 A2 A^A B2 | cB ^A2 F4 | F2 ^E2 F^GAB | %7
 FB- B^A F4 |][K:C] E2 D2 E2 E2 | E^F ^G2 E4 | E^G A2 D2 =G2 | F2 EF/G/ F4 | F2 F2 E2 E2 | %13
 DA ^G2 E4 | ^DE ^F2 E2 E2 | =FC D2 ^C4 |] %16
V:3
 D2 CB, C2 B,2 | B,3 ^A, F,4 | DC B,2 C2 D2 | G,2 A,B,/=C/ B,4 | A,2 E2 DC B,2 | G2 CF D4 | %6
 D2 CB, C2 F2 | ED C/D/E ^D4 |][K:C] C2 B,A, B,A,G,A, | B,C D2 C4 | CDEF B,A,G,A, | B,2 CG, A,4 | %12
 A,2 B,C B,2 A,2 | A,2 ED C4 | ^F,2 B,2 B,2 A,2 | A,3 ^G, E,4 |] %16
V:4
 B,A, G,2 F,E,D,B,, | E,D,E,F, !fermata!B,,4 | B,,2 B,2 A,G, F,2 | E,2 D,2 !fermata!G,4 | %4
 F,E,D,C, D,2 G,F, | E,2 F,2 !fermata!B,,4 | B,A, ^G,2 F,E,F,G, | ^A,B, F,2 !fermata!B,,4 |] %8
[K:C] A,G, F,2 E,3 ^F, | ^G,A,E,E,, !fermata!A,,4 | A,,2 A,2 G,F, E,2 | D,2 C,2 !fermata!F,4 | %12
 F,E, D,2 ^G,,2 A,,=G,, | F,,D,, E,,2 !fermata!A,,4 | B,,^C,^D,B,, E,=D,=C,A,, | %15
 D,E,/F,/ E,2 !fermata!A,,4 |] %16

